Numix-GalliumOS/64/devices/media-cdr.svg

<?xml version="1.0" encoding="UTF-8" standalone="yes"?>
<svg xmlns="http://www.w3.org/2000/svg" xmlns:xlink="http://www.w3.org/1999/xlink" width="64px" height="64px" viewBox="0 0 48 48" version="1.1">
  <g id="surface1">
    <path style=" stroke:none;fill-rule:nonzero;fill:rgb(93.333333%,90.980392%,83.529412%);fill-opacity:1;" d="M 24 7.5 C 14.886719 7.5 7.5 14.886719 7.5 24 C 7.5 33.113281 14.886719 40.5 24 40.5 C 33.113281 40.5 40.5 33.113281 40.5 24 C 40.5 14.886719 33.113281 7.5 24 7.5 Z M 24 18.84375 C 26.839844 18.84375 29.15625 21.160156 29.15625 24 C 29.15625 26.839844 26.839844 29.15625 24 29.15625 C 21.160156 29.15625 18.84375 26.839844 18.84375 24 C 18.84375 21.160156 21.160156 18.84375 24 18.84375 Z M 24 19.875 C 21.714844 19.875 19.875 21.714844 19.875 24 C 19.875 26.285156 21.714844 28.125 24 28.125 C 26.285156 28.125 28.125 26.285156 28.125 24 C 28.125 21.714844 26.285156 19.875 24 19.875 Z M 24 21.421875 C 25.425781 21.421875 26.578125 22.574219 26.578125 24 C 26.578125 25.425781 25.425781 26.578125 24 26.578125 C 22.574219 26.578125 21.421875 25.425781 21.421875 24 C 21.421875 22.574219 22.574219 21.421875 24 21.421875 Z M 24 21.421875 "/>
    <path style=" stroke:none;fill-rule:nonzero;fill:rgb(39.607843%,48.235294%,51.372549%);fill-opacity:0.254902;" d="M 22.214844 22.15625 C 22.617188 21.769531 23.132812 21.507812 23.6875 21.4375 L 23.488281 19.921875 C 22.597656 20.03125 21.785156 20.421875 21.144531 21.042969 Z M 20.425781 20.3125 C 21.226562 19.542969 22.261719 19.046875 23.367188 18.90625 L 21.933594 7.648438 C 18.386719 8.101562 15.070312 9.683594 12.515625 12.160156 Z M 20.425781 20.3125 "/>
    <path style=" stroke:none;fill-rule:nonzero;fill:rgb(100%,99.607843%,98.431373%);fill-opacity:0.462745;" d="M 26.40625 24.894531 C 26.210938 25.417969 25.859375 25.875 25.386719 26.179688 L 26.21875 27.460938 C 26.976562 26.976562 27.539062 26.273438 27.851562 25.4375 Z M 28.8125 25.789062 C 28.421875 26.828125 27.703125 27.722656 26.765625 28.324219 L 32.910156 37.867188 C 35.917969 35.929688 38.226562 33.074219 39.46875 29.738281 Z M 28.8125 25.789062 "/>
    <path style=" stroke:none;fill-rule:nonzero;fill:rgb(39.607843%,48.235294%,51.372549%);fill-opacity:0.254902;" d="M 25.847656 25.78125 C 25.460938 26.183594 24.953125 26.460938 24.398438 26.550781 L 24.652344 28.058594 C 25.539062 27.917969 26.335938 27.5 26.957031 26.855469 Z M 27.699219 27.5625 C 26.925781 28.359375 25.910156 28.890625 24.808594 29.070312 L 26.628906 40.269531 C 30.160156 39.695312 33.417969 38 35.886719 35.4375 Z M 27.699219 27.5625 "/>
    <path style=" stroke:none;fill-rule:nonzero;fill:rgb(100%,99.607843%,98.431373%);fill-opacity:0.427451;" d="M 21.609375 23.0625 C 21.816406 22.539062 22.175781 22.089844 22.65625 21.796875 L 21.847656 20.5 C 21.082031 20.96875 20.503906 21.660156 20.175781 22.492188 Z M 19.222656 22.121094 C 19.632812 21.089844 20.367188 20.207031 21.316406 19.621094 L 15.351562 9.96875 C 12.3125 11.847656 9.949219 14.660156 8.644531 17.972656 Z M 19.222656 22.121094 "/>
    <path style=" stroke:none;fill-rule:nonzero;fill:rgb(39.607843%,48.235294%,51.372549%);fill-opacity:1;" d="M 24 18 C 20.6875 18 18 20.6875 18 24 C 18 27.3125 20.6875 30 24 30 C 27.3125 30 30 27.3125 30 24 C 30 20.6875 27.3125 18 24 18 Z M 24 19.5 C 26.484375 19.5 28.5 21.515625 28.5 24 C 28.5 26.484375 26.484375 28.5 24 28.5 C 21.515625 28.5 19.5 26.484375 19.5 24 C 19.5 21.515625 21.515625 19.5 24 19.5 Z M 24 19.5 "/>
  </g>
</svg>

<svg xmlns="http://www.w3.org/2000/svg" width="64" height="64" viewBox="0 0 48 48">
 <g>
  <path d="m 24 7.5 c -9.113 0 -16.5 7.387 -16.5 16.5 c 0 9.113 7.387 16.5 16.5 16.5 c 9.113 0 16.5 -7.387 16.5 -16.5 c 0 -9.113 -7.387 -16.5 -16.5 -16.5 m 0 11.344 c 2.84 0 5.156 2.316 5.156 5.156 c 0 2.84 -2.316 5.156 -5.156 5.156 c -2.84 0 -5.156 -2.316 -5.156 -5.156 c 0 -2.84 2.316 -5.156 5.156 -5.156 m 0 1.031 c -2.285 0 -4.125 1.84 -4.125 4.125 c 0 2.285 1.84 4.125 4.125 4.125 c 2.285 0 4.125 -1.84 4.125 -4.125 c 0 -2.285 -1.84 -4.125 -4.125 -4.125 m 0 1.547 c 1.426 0 2.578 1.152 2.578 2.578 c 0 1.426 -1.152 2.578 -2.578 2.578 c -1.426 0 -2.578 -1.152 -2.578 -2.578 c 0 -1.426 1.152 -2.578 2.578 -2.578 m 0 0" style="fill:#ede7d5;fill-opacity:1;stroke:none;fill-rule:nonzero"/>
  <path d="m 22.21 22.16 c 0.402 -0.387 0.918 -0.648 1.473 -0.719 l -0.199 -1.516 c -0.891 0.109 -1.703 0.5 -2.344 1.121 m -0.719 -0.73 c 0.801 -0.77 1.836 -1.266 2.941 -1.406 l -1.434 -11.258 c -3.547 0.453 -6.863 2.035 -9.418 4.512 m 7.91 8.152" style="fill:#647a82;fill-opacity:0.255;stroke:none;fill-rule:nonzero"/>
  <path d="m 26.406 24.895 c -0.195 0.523 -0.547 0.98 -1.02 1.285 l 0.832 1.281 c 0.758 -0.484 1.32 -1.188 1.633 -2.023 m 0.961 0.352 c -0.391 1.039 -1.109 1.934 -2.047 2.535 l 6.145 9.543 c 3.01 -1.938 5.316 -4.793 6.559 -8.129 m -10.656 -3.949" style="fill:#fffdfb;fill-opacity:0.463;stroke:none;fill-rule:nonzero"/>
  <path d="m 25.848 25.781 c -0.387 0.402 -0.895 0.68 -1.449 0.77 l 0.254 1.508 c 0.887 -0.141 1.684 -0.559 2.305 -1.203 m 0.742 0.707 c -0.773 0.797 -1.789 1.328 -2.891 1.508 l 1.82 11.199 c 3.531 -0.574 6.789 -2.27 9.258 -4.832 m -8.188 -7.875" style="fill:#647a82;fill-opacity:0.255;stroke:none;fill-rule:nonzero"/>
  <path d="m 21.609 23.06 c 0.207 -0.523 0.566 -0.973 1.047 -1.266 l -0.809 -1.297 c -0.766 0.469 -1.344 1.16 -1.672 1.992 m -0.953 -0.371 c 0.41 -1.031 1.145 -1.914 2.094 -2.5 l -5.965 -9.652 c -3.039 1.879 -5.402 4.691 -6.707 8 m 10.578 4.148" style="fill:#fffdfb;fill-opacity:0.427;stroke:none;fill-rule:nonzero"/>
  <path d="m 24 18 c -3.313 0 -6 2.688 -6 6 c 0 3.313 2.688 6 6 6 c 3.313 0 6 -2.688 6 -6 c 0 -3.313 -2.688 -6 -6 -6 m 0 1.5 c 2.484 0 4.5 2.02 4.5 4.5 c 0 2.484 -2.02 4.5 -4.5 4.5 c -2.484 0 -4.5 -2.02 -4.5 -4.5 c 0 -2.484 2.02 -4.5 4.5 -4.5 m 0 0" style="fill:#647a82;fill-opacity:1;stroke:none;fill-rule:nonzero"/>
 </g>
</svg>
